X:1
T:Erfreue Dich Himmel
T:Erfreue Dich Himmel
%%score 1 2
L:1/8
Q:1/4=90
M:3/4
K:C
V:1 treble nm="Violin"
V:2 bass nm="Violoncello"
V:1
 G2 | E3 F G2 | E2 C2 G2 | A3 B c2 | B2 G2 G2 | A3 A B2 | c2 c2 B2 | A3 G ^F2 | G2 G2 G2 | %9
 c2 c2 G2 | A2 A2 G2 | F3 E FG | E2 C2 G2 | A2 A2 B2 | c3 d e2 | d3 c B2 | c2 c2 x2 |] %17
V:2
 z2 | C,4 G,,2 | C,4 B,,2 | A,,6 | G,,4 C,2 | F,2 D,2 G,,2 | C,2 D,2 E,2 | A,,4 D,2 | G,,6 | %9
 C,2 C,2 B,,2 | A,,2 A,,2 D,2 | F,2 C,2 G,,2 | C,6 | F,,2 D,,2 G,,2 | C,,4 C,2 | D,4 G,2 | %16
 C,4 x2 |] %17

